X: 22531
T: Lady Gordon's
R: reel
M: 4/4
K: Dmajor
FEDF A2FA|d2fd efdB|(3ABA FA ABdf|1 afge fdBd:|2 afeg fdd2||
d2fd adfd|adfd (3Bcd ec|d2fd adfd|ABde fddA|
defg a~a2b|afed (3Bcd eg|fedB (3ABA FA|ABde faaz||

